X:1
T:(1906)
T:J. C. Folwell (fl.1904)
T:Mistletoe Waltz
%%score ( 1 2 )
L:1/8
Q:1/4=132
M:3/4
K:C
V:1 treble-8 nm="Guitare classique"
V:2 treble-8 
V:1
SS"^Intro.""_" !1!!4![Gcg]6 |!>(! !1!!4![G^ca]6 | !2!!4!!1![Adf]3 e d2 | A2 B2 c2 | [Gce]6!>)! | %5
 !arpeggio![GBe]2 G2 d2 | c6- | !fermata!c2 ||[Q:1/4=176]"_" g2 ^g2 | !4!a4 !2!g2 | !1!f4 !4!g2 | %11
 e6- | e2 !4!^d2 e2 | !4!g6- | g2 !2!^c2 !3!d2 | g6 | z2 g2 ^g2 | a4 g2 | f4 g2 | e6- | e2 ^d2 e2 | %21
 !4!g2 !2!A2 !1!f2 | e2 G2 d2 | c6- | c2!fine! ::[K:G]"_" !3!d2 !4!^d2 | e6- | e2 !3!f2 !4!d2 | %28
 g6- | g2 f2 g2 | !3!^g6- | g2 !1!=f2 e2 |"^₵5" a6- | a2 !4!b2 !1!a2 | e6- | e2 !4!b2 !2!a2 | %36
 !4!d'6- | d'2 !1!b2 !2!g2 | e6 | !3!f6 | [GBg]6- | [GBg]2 ::[K:C] e2 f2 | !4![GBg]2 !3!d2 !1!f2 | %44
 A2 B2 G2 | e6- | e2 !4!^d2 e2 | f6- | f2 A2 G2 | e6- | e2 e2 f2 | [GBg]2 d2 f2 | A2 B2 G2 | e6- | %54
 e2 ^d2 e2 | f6 | B6 | c6- | c2 ::"_" z4 | FGEGDG | CGB,GA,G | z2 [Gce]2 [Gce]2 | [Gce]2 z2 z2 | %64
 z2 [GBf]2 [GBf]2 | [GBf]2 z2 z2 | z2 [Gce]2 [Gce]2 | [Gce]2 z2 z2 | FGEGDG | CGB,GA,G | %70
 z2 [Gce]2 [Gce]2 | [Gce]2 z2 z2 | z2 [Ac^f]2 [Acf]2 | z2 !1![GB=f]2 [GBf]2 | [Gce]2 z2 z2 | %75
 z2!D.S.! :| %76
V:2
 !2!E6 | A,6 | D6 | z6 | G,6 | F6 | C2 G2 E2 | C2 || z4 | D2 [GB]2 z2 | D2 [GB]2 z2 | %11
 C2 [Gc]2 [Gc]2 | G,2 z2 z2 | D2 [GB]2 [GB]2 | !3!F2 z2 z2 | E2 [Gc]2 [Gc]2 | G,2 z2 z2 | %17
 D2 [GB]2 z2 | D2 [GB]2 z2 | C2 [Gc]2 [Gc]2 | G,2 z2 z2 | D4 z2 | G,4 z2 | C2 G2 E2 | C2 :: %25
[K:G] z4 | A,2 !2!!1![Ac]2 [Ac]2 | D6 | G,2 [GB]2 [GB]2 | D2 z2 z2 | E,2 !2!!1![Bd]2 [Bd]2 | %31
 E,2 z2 z2 | A,2 [ce]2 [ce]2 | A,4 z2 | A,2 [Ac]2 [Ac]2 | A,6 | D2 [GB]2 [GB]2 | D4 z2 | %38
 A,2 [Ac]2 [Ac]2 | D2 [Ac]2 [Ac]2 | G,2 D2 B,2 | G,2 ::[K:C] z4 | D6 | z6 | C2 [Gc]2 [Gc]2 | %46
 G,2 z2 z2 | D2 [GB]2 [GB]2 | G,2 z2 z2 | C2 [Gc]2 [Gc]2 | G,2 z2 z2 | D6 | z6 | C2 [Gc]2 [Gc]2 | %54
 G,2 z2 z2 | D2 [GB]2 [GB]2 | G,2 [Gf]2 [Gf]2 | C2 G2 E2 | C2 :: D2 E2 | F2 E2 D2 | C2 B,2 A,2 | %62
 G,6- | G,2 E2 C2 | B,6- | B,2 D2 ^D2 | E6- | E2 D2 E2 | F2 E2 D2 | C2 B,2 A,2 | G,6- | G,2 E2 C2 | %72
 A,6 | !2!B,6 | C2 G2 E2 | !fermata!C2 :| %76

